app/dist/common/images/elementis-plc.svg

<svg fill="none" height="18" viewBox="0 0 18 18" width="18" xmlns="http://www.w3.org/2000/svg"><path d="m0 0h18v18h-18z" fill="#7aaed5"/><path d="m5 14v-.3448h.30349c.84631 0 1.19651-.1662 1.19651-1.1994v-8.4558h5.5v.58474h-4v3.83553h3v.57973h-3v3.0959c0 1.0923.90113 1.3194 1.87537 1.3194h.62543c1.2592 0 1.9078-.51 2.1679-1.8015h.3313l-.2282 2.3862z" fill="#f0f3fa"/></svg>

<!-- by TradingView --><svg width="18" height="18" viewBox="0 0 18 18" fill="none" xmlns="http://www.w3.org/2000/svg">
<rect width="18" height="18" fill="#7AAED5"/>
<path d="M5 14V13.6552H5.30349C6.1498 13.6552 6.5 13.489 6.5 12.4558V4L12 4C12 4.45335 12 4.31621 12 4.58474H8V8.42027H11V9H8V12.0959C8 13.1882 8.90113 13.4153 9.87537 13.4153H10.5008C11.76 13.4153 12.4086 12.9053 12.6687 11.6138H13L12.7718 14H5Z" fill="#F0F3FA"/>
</svg>
